X:3005
T:Lullaby
C:anon.
O:Iceland
R:Lullaby
Z:Transcribed by Frank Nordberg - http://www.musicaviva.com
F:http://abc.musicaviva.com/tunes/iceland/lullaby-iceland.abc
M:C
L:1/4
K:Gm
DDGG|AG/A/B2|GBAG|^F2D2|
DDGG|AG/A/B2|AcBA|GAD z|
DE/D/GD|BA/A/G^F|A4|G3 z|]
W:
W:
W:  From Musica Viva - http://www.musicaviva.com
W:  the Internet center for free sheet music downloads.
